src/img/products/products-hero-list-3.svg

<svg
 xmlns="http://www.w3.org/2000/svg"
 xmlns:xlink="http://www.w3.org/1999/xlink"
 width="29px" height="27px">
<path fill-rule="evenodd"  fill="rgb(146, 181, 73)"
 d="M8.252,0.107 C4.231,0.109 0.939,3.425 0.939,7.481 C0.939,9.64 1.443,10.532 2.288,11.733 L2.291,11.733 C2.304,11.749 2.311,11.766 2.324,11.783 L14.25,25.900 C14.405,26.350 15.37,26.260 15.342,25.893 L27.90,11.733 C27.935,10.533 28.439,9.63 28.439,7.482 C28.439,3.423 25.149,0.108 21.126,0.108 L21.123,0.108 C18.344,0.108 15.922,1.691 14.689,4.9 C13.456,1.693 11.33,0.109 8.255,0.108 L8.252,0.107 ZM8.252,1.854 C11.346,1.854 13.825,4.365 13.825,7.482 C13.830,7.960 14.216,8.343 14.689,8.341 C15.163,8.343 15.549,7.960 15.554,7.482 C15.554,4.365 18.30,1.854 21.124,1.854 C24.217,1.854 26.709,4.365 26.709,7.482 C26.709,8.686 26.340,9.790 25.703,10.704 L14.688,23.984 C11.6,19.544 7.325,15.103 3.644,10.663 C3.27,9.757 2.668,8.668 2.668,7.482 C2.668,4.365 5.159,1.855 8.251,1.855 L8.252,1.854 Z"/>
</svg>

<svg xmlns="http://www.w3.org/2000/svg" width="29" height="27"><path fill-rule="evenodd" fill="#92B549" d="M8.25.1a7.37 7.37 0 0 0-7.31 7.38c0 2.16.5 3.05 1.35 4.25l.03.05 11.93 14.12c.15.45 1.12.36 1.1 0l12.55-14.17c.04-1.2.54-2.1.54-4.25a7.36 7.36 0 0 0-7.31-7.37c-2.79 0-5.2 1.58-6.44 4.79-1.23-3.2-3.36-4.8-6.43-4.8Zm0 1.75c3.1 0 5.57 2.52 5.57 5.63a.86.86 0 0 0 1.73 0 5.76 5.76 0 0 1 5.57-5.63 5.6 5.6 0 0 1 5.59 5.63c0 1.2-.37 2.31-1 3.22l-11.02 13.28c-3.09-4.44-7.36-8.88-11.05-13.32-.37-.9-.97-2-.97-3.18a5.6 5.6 0 0 1 5.58-5.63Z"/></svg>
